img/svg-technomart/logo-technomart.svg

<svg xmlns="http://www.w3.org/2000/svg" preserveAspectRatio="xMidYMid" width="136.5" height="21.59"><path d="M131.694 2.397v18.9h-2.7v-18.9h-4.8v-2.1h12.3v2.1h-4.8zm-10.395 11.115c-.47.59-1.06 1.01-1.77 1.26s-1.555.375-2.535.375c-.46 0-.98-.03-1.56-.09-.58-.06-1.06-.13-1.44-.21v6.45h-2.7V.597c.76-.22 1.525-.375 2.295-.465.77-.09 1.605-.135 2.505-.135 1.2 0 2.22.125 3.06.375.84.25 1.52.665 2.04 1.245.52.58.9 1.35 1.14 2.31.24.96.36 2.15.36 3.57 0 1.46-.115 2.68-.345 3.66-.23.98-.58 1.765-1.05 2.355zm-1.53-8.715c-.15-.72-.385-1.29-.705-1.71a2.55 2.55 0 0 0-1.215-.885c-.49-.17-1.075-.255-1.755-.255h-2.1v11.1h2.1c.68 0 1.265-.085 1.755-.255a2.55 2.55 0 0 0 1.215-.885c.32-.42.555-.99.705-1.71.15-.72.225-1.62.225-2.7s-.075-1.98-.225-2.7zm-15.225 11.1h-6l-1.35 5.4h-2.7l5.1-21h3.9l5.1 21h-2.7l-1.35-5.4zm-2.94-12.6h-.12l-2.49 10.5h5.1l-2.49-10.5zm-12.96 2.4h-.15l-4.35 12.9h-2.7l-4.35-12.9h-.15l-.9 15.6h-2.7l1.2-21h3.3l4.89 14.4h.12l4.89-14.4h3.3l1.2 21h-2.7l-.9-15.6zm-20.16 13.65c-.56.82-1.235 1.4-2.025 1.74-.79.34-1.695.51-2.715.51-1.02 0-1.925-.17-2.715-.51-.79-.34-1.465-.92-2.025-1.74-.56-.82-.985-1.925-1.275-3.315-.29-1.39-.435-3.135-.435-5.235 0-2.1.145-3.845.435-5.235.29-1.39.715-2.495 1.275-3.315.56-.82 1.235-1.4 2.025-1.74.79-.34 1.695-.51 2.715-.51 1.02 0 1.925.17 2.715.51.79.34 1.465.92 2.025 1.74.56.82.985 1.925 1.275 3.315.29 1.39.435 3.135.435 5.235 0 2.1-.145 3.845-.435 5.235-.29 1.39-.715 2.495-1.275 3.315zm-1.305-12.99c-.21-1.16-.485-2.08-.825-2.76-.34-.68-.74-1.15-1.2-1.41-.46-.26-.93-.39-1.41-.39-.48 0-.95.13-1.41.39-.46.26-.86.73-1.2 1.41-.34.68-.615 1.6-.825 2.76-.21 1.16-.315 2.64-.315 4.44 0 1.8.105 3.28.315 4.44.21 1.16.485 2.08.825 2.76.34.68.74 1.15 1.2 1.41.46.26.93.39 1.41.39.48 0 .95-.13 1.41-.39.46-.26.86-.73 1.2-1.41.34-.68.615-1.6.825-2.76.21-1.16.315-2.64.315-4.44 0-1.8-.105-3.28-.315-4.44zm-16.185 5.34h-6.3v9.6h-2.7v-21h2.7v9.3h6.3v-9.3h2.7v21h-2.7v-9.6zm-14.249 9.6l-3.75-9-3.75 9h-2.7l4.5-10.8-4.05-10.2h2.7l3.3 8.4 3.3-8.4h2.7l-4.05 10.2 4.5 10.8h-2.7zm-22.05-21h10.2v2.1h-7.5v6.9h6.6v2.1h-6.6v7.8h7.5v2.1h-10.2v-21zm-7.2 21h-2.7v-18.9h-4.8v-2.1h12.3v2.1h-4.8v18.9z" fill="#fff" fill-rule="evenodd"/></svg>

<svg xmlns="http://www.w3.org/2000/svg" xmlns:xlink="http://www.w3.org/1999/xlink" preserveAspectRatio="xMidYMid" width="136.5" height="21.59" viewBox="0 0 136.5 21.59">
  <defs>
    <style>
      .cls-1 {
        fill: #fff;
        fill-rule: evenodd;
      }
    </style>
  </defs>
  <path d="M131.694,2.397 L131.694,21.297 L128.994,21.297 L128.994,2.397 L124.194,2.397 L124.194,0.297 L136.494,0.297 L136.494,2.397 L131.694,2.397 ZM121.299,13.512 C120.829,14.102 120.239,14.522 119.529,14.772 C118.819,15.022 117.974,15.147 116.994,15.147 C116.534,15.147 116.014,15.117 115.434,15.057 C114.854,14.997 114.374,14.927 113.994,14.847 L113.994,21.297 L111.294,21.297 L111.294,0.597 C112.054,0.377 112.819,0.222 113.589,0.132 C114.359,0.042 115.194,-0.003 116.094,-0.003 C117.294,-0.003 118.314,0.122 119.154,0.372 C119.994,0.622 120.674,1.037 121.194,1.617 C121.714,2.197 122.094,2.967 122.334,3.927 C122.574,4.887 122.694,6.077 122.694,7.497 C122.694,8.957 122.579,10.177 122.349,11.157 C122.119,12.137 121.769,12.922 121.299,13.512 ZM119.769,4.797 C119.619,4.077 119.384,3.507 119.064,3.087 C118.744,2.667 118.339,2.372 117.849,2.202 C117.359,2.032 116.774,1.947 116.094,1.947 L113.994,1.947 L113.994,13.047 L116.094,13.047 C116.774,13.047 117.359,12.962 117.849,12.792 C118.339,12.622 118.744,12.327 119.064,11.907 C119.384,11.487 119.619,10.917 119.769,10.197 C119.919,9.477 119.994,8.577 119.994,7.497 C119.994,6.417 119.919,5.517 119.769,4.797 ZM104.544,15.897 L98.544,15.897 L97.194,21.297 L94.494,21.297 L99.594,0.297 L103.494,0.297 L108.594,21.297 L105.894,21.297 L104.544,15.897 ZM101.604,3.297 L101.484,3.297 L98.994,13.797 L104.094,13.797 L101.604,3.297 ZM88.644,5.697 L88.494,5.697 L84.144,18.597 L81.444,18.597 L77.094,5.697 L76.944,5.697 L76.044,21.297 L73.344,21.297 L74.544,0.297 L77.844,0.297 L82.734,14.697 L82.854,14.697 L87.744,0.297 L91.044,0.297 L92.244,21.297 L89.544,21.297 L88.644,5.697 ZM68.484,19.347 C67.924,20.167 67.249,20.747 66.459,21.087 C65.669,21.427 64.764,21.597 63.744,21.597 C62.724,21.597 61.819,21.427 61.029,21.087 C60.239,20.747 59.564,20.167 59.004,19.347 C58.444,18.527 58.019,17.422 57.729,16.032 C57.439,14.642 57.294,12.897 57.294,10.797 C57.294,8.697 57.439,6.952 57.729,5.562 C58.019,4.172 58.444,3.067 59.004,2.247 C59.564,1.427 60.239,0.847 61.029,0.507 C61.819,0.167 62.724,-0.003 63.744,-0.003 C64.764,-0.003 65.669,0.167 66.459,0.507 C67.249,0.847 67.924,1.427 68.484,2.247 C69.044,3.067 69.469,4.172 69.759,5.562 C70.049,6.952 70.194,8.697 70.194,10.797 C70.194,12.897 70.049,14.642 69.759,16.032 C69.469,17.422 69.044,18.527 68.484,19.347 ZM67.179,6.357 C66.969,5.197 66.694,4.277 66.354,3.597 C66.014,2.917 65.614,2.447 65.154,2.187 C64.694,1.927 64.224,1.797 63.744,1.797 C63.264,1.797 62.794,1.927 62.334,2.187 C61.874,2.447 61.474,2.917 61.134,3.597 C60.794,4.277 60.519,5.197 60.309,6.357 C60.099,7.517 59.994,8.997 59.994,10.797 C59.994,12.597 60.099,14.077 60.309,15.237 C60.519,16.397 60.794,17.317 61.134,17.997 C61.474,18.677 61.874,19.147 62.334,19.407 C62.794,19.667 63.264,19.797 63.744,19.797 C64.224,19.797 64.694,19.667 65.154,19.407 C65.614,19.147 66.014,18.677 66.354,17.997 C66.694,17.317 66.969,16.397 67.179,15.237 C67.389,14.077 67.494,12.597 67.494,10.797 C67.494,8.997 67.389,7.517 67.179,6.357 ZM50.994,11.697 L44.694,11.697 L44.694,21.297 L41.994,21.297 L41.994,0.297 L44.694,0.297 L44.694,9.597 L50.994,9.597 L50.994,0.297 L53.694,0.297 L53.694,21.297 L50.994,21.297 L50.994,11.697 ZM36.745,21.297 L32.995,12.297 L29.245,21.297 L26.545,21.297 L31.045,10.497 L26.995,0.297 L29.695,0.297 L32.995,8.697 L36.295,0.297 L38.995,0.297 L34.945,10.497 L39.445,21.297 L36.745,21.297 ZM14.695,0.297 L24.895,0.297 L24.895,2.397 L17.395,2.397 L17.395,9.297 L23.995,9.297 L23.995,11.397 L17.395,11.397 L17.395,19.197 L24.895,19.197 L24.895,21.297 L14.695,21.297 L14.695,0.297 ZM7.495,21.297 L4.795,21.297 L4.795,2.397 L-0.005,2.397 L-0.005,0.297 L12.295,0.297 L12.295,2.397 L7.495,2.397 L7.495,21.297 Z" class="cls-1"/>
</svg>
